src/assets/media/svg/sprite/map location.svg

<svg width="24" height="24" viewBox="0 0 24 24"  xmlns="http://www.w3.org/2000/svg">
<path d="M12 0.75C10.1999 0.75 8.47344 1.46511 7.20054 2.73801C5.92763 4.01092 5.21252 5.73734 5.21252 7.5375C5.21252 13.65 12 19.65 12 19.65C12 19.65 18.7875 13.65 18.7875 7.5375C18.7875 5.73734 18.0724 4.01092 16.7995 2.73801C15.5266 1.46511 13.8002 0.75 12 0.75ZM12 9.75C11.555 9.75 11.12 9.61804 10.75 9.37081C10.38 9.12357 10.0916 8.77217 9.9213 8.36104C9.751 7.9499 9.70644 7.4975 9.79326 7.06105C9.88007 6.62459 10.0944 6.22368 10.409 5.90901C10.7237 5.59434 11.1246 5.38005 11.5611 5.29323C11.9975 5.20642 12.4499 5.25097 12.8611 5.42127C13.2722 5.59157 13.6236 5.87996 13.8708 6.24997C14.1181 6.61998 14.25 7.05499 14.25 7.5C14.25 8.09674 14.013 8.66903 13.591 9.09099C13.1691 9.51295 12.5968 9.75 12 9.75Z" />
<path d="M16.05 17.475C15.1259 18.6416 14.1102 19.7325 13.0125 20.7375L12 21.6375L11.025 20.775C9.92733 19.77 8.91161 18.6791 7.9875 17.5125C4.1625 17.925 1.5 19.0125 1.5 20.25C1.5 21.4875 6.1875 23.25 12 23.25C17.8125 23.25 22.5 21.9 22.5 20.25C22.5 18.6 19.8375 17.925 16.05 17.475Z" />
</svg>

<svg xmlns="http://www.w3.org/2000/svg" width="24" height="24"><path d="M12 .75a6.79 6.79 0 0 0-6.787 6.788C5.213 13.65 12 19.65 12 19.65s6.788-6 6.788-12.112A6.79 6.79 0 0 0 12 .75m0 9a2.25 2.25 0 1 1 0-4.5 2.25 2.25 0 0 1 0 4.5"/><path d="M16.05 17.475a28 28 0 0 1-3.038 3.262l-1.012.9-.975-.862a28 28 0 0 1-3.038-3.262c-3.825.412-6.487 1.5-6.487 2.737s4.688 3 10.5 3 10.5-1.35 10.5-3-2.663-2.325-6.45-2.775"/></svg>
